static/assets/images/icons/botnet-mono.svg

<svg width="257" height="256" viewBox="0 0 257 256" fill="none" xmlns="http://www.w3.org/2000/svg">
<path fill-rule="evenodd" clip-rule="evenodd" d="M220.337 112.366C230.913 121.582 233.348 131.867 233.463 145.977C233.58 160.388 231.149 171.014 220.337 180.415C214.108 185.83 206.531 187.721 200.665 189.184C199.961 189.36 199.281 189.53 198.631 189.698V207.295C198.631 210.207 196.97 212.877 194.29 213.949C178.098 220.425 154.384 224.513 127.959 224.513C101.533 224.513 77.8195 220.425 61.6272 213.949C58.9468 212.877 57.2859 210.207 57.2859 207.295V189.698C56.5768 189.514 55.8312 189.33 55.0561 189.139L55.0537 189.138C49.2048 187.694 41.6831 185.837 35.5806 180.415C24.963 170.982 23.2699 160.261 23.3798 145.977C23.4875 131.997 25.2023 121.614 35.5806 112.366C42.4835 106.214 51.144 102.97 58.5478 102.97C58.5478 73.2985 87.0508 49.0077 123.135 47.006V34.4386C117.846 32.4585 114.076 27.316 114.076 21.284C114.076 13.5386 120.292 7.25977 127.959 7.25977C135.625 7.25977 141.841 13.5386 141.841 21.284C141.841 27.316 138.071 32.4585 132.782 34.4386V47.006C168.866 49.0077 197.369 73.2985 197.369 102.97C204.773 102.97 213.366 106.292 220.337 112.366ZM50.6014 130.445C48.5684 135.209 47.4421 140.46 47.4421 145.977C47.4421 162.046 56.9961 175.861 70.6785 181.94H101.946C115.628 175.861 125.182 162.046 125.182 145.977C125.182 140.46 124.056 135.209 122.023 130.445H50.6014ZM135.745 130.445C133.712 135.209 132.586 140.46 132.586 145.977C132.586 162.046 142.14 175.861 155.822 181.94H187.089C200.772 175.861 210.326 162.046 210.326 145.977C210.326 140.46 209.199 135.209 207.166 130.445H135.745Z" fill="black"/>
<path fill-rule="evenodd" clip-rule="evenodd" d="M220.337 112.366C230.913 121.582 233.348 131.867 233.463 145.977C233.58 160.388 231.149 171.014 220.337 180.415C214.108 185.83 206.531 187.721 200.665 189.184C199.961 189.36 199.281 189.53 198.631 189.698V207.295C198.631 210.207 196.97 212.877 194.29 213.949C178.098 220.425 154.384 224.513 127.959 224.513C101.533 224.513 77.8195 220.425 61.6272 213.949C58.9468 212.877 57.2859 210.207 57.2859 207.295V189.698C56.5768 189.514 55.8312 189.33 55.0561 189.139L55.0537 189.138C49.2048 187.694 41.6831 185.837 35.5806 180.415C24.963 170.982 23.2699 160.261 23.3798 145.977C23.4875 131.997 25.2023 121.614 35.5806 112.366C42.4835 106.214 51.144 102.97 58.5478 102.97C58.5478 73.2985 87.0508 49.0077 123.135 47.006V34.4386C117.846 32.4585 114.076 27.316 114.076 21.284C114.076 13.5386 120.292 7.25977 127.959 7.25977C135.625 7.25977 141.841 13.5386 141.841 21.284C141.841 27.316 138.071 32.4585 132.782 34.4386V47.006C168.866 49.0077 197.369 73.2985 197.369 102.97C204.773 102.97 213.366 106.292 220.337 112.366ZM50.6014 130.445C48.5684 135.209 47.4421 140.46 47.4421 145.977C47.4421 162.046 56.9961 175.861 70.6785 181.94H101.946C115.628 175.861 125.182 162.046 125.182 145.977C125.182 140.46 124.056 135.209 122.023 130.445H50.6014ZM135.745 130.445C133.712 135.209 132.586 140.46 132.586 145.977C132.586 162.046 142.14 175.861 155.822 181.94H187.089C200.772 175.861 210.326 162.046 210.326 145.977C210.326 140.46 209.199 135.209 207.166 130.445H135.745Z" fill="black"/>
<path d="M147.254 136.543H166.505C167.43 136.543 168.179 137.3 168.179 138.234V157.689C168.179 158.624 167.43 159.381 166.505 159.381H147.254C146.329 159.381 145.58 158.624 145.58 157.689V138.234C145.58 137.3 146.329 136.543 147.254 136.543Z" fill="black"/>
<path d="M147.254 136.543H166.505C167.43 136.543 168.179 137.3 168.179 138.234V157.689C168.179 158.624 167.43 159.381 166.505 159.381H147.254C146.329 159.381 145.58 158.624 145.58 157.689V138.234C145.58 137.3 146.329 136.543 147.254 136.543Z" fill="black"/>
<path d="M62.7149 136.543H81.1293C82.0538 136.543 82.8033 137.3 82.8033 138.234V157.689C82.8033 158.624 82.0538 159.381 81.1293 159.381H62.7149C61.7903 159.381 61.0408 158.624 61.0408 157.689V138.234C61.0408 137.3 61.7903 136.543 62.7149 136.543Z" fill="black"/>
<path d="M62.7149 136.543H81.1293C82.0538 136.543 82.8033 137.3 82.8033 138.234V157.689C82.8033 158.624 82.0538 159.381 81.1293 159.381H62.7149C61.7903 159.381 61.0408 158.624 61.0408 157.689V138.234C61.0408 137.3 61.7903 136.543 62.7149 136.543Z" fill="black"/>
</svg>

<svg xmlns="http://www.w3.org/2000/svg" viewBox="0 0 257 256"><path fill-rule="evenodd" d="M220.337 112.366c10.576 9.216 13.011 19.501 13.126 33.611.117 14.411-2.314 25.037-13.126 34.438-6.229 5.415-13.806 7.306-19.672 8.769q-1.057.263-2.034.514v17.597c0 2.912-1.661 5.582-4.341 6.654-16.192 6.476-39.906 10.564-66.331 10.564s-50.14-4.088-66.332-10.564c-2.68-1.072-4.341-3.742-4.341-6.654v-17.597q-1.066-.274-2.23-.559l-.002-.001c-5.85-1.444-13.37-3.301-19.473-8.723-10.618-9.433-12.311-20.154-12.201-34.438.108-13.98 1.822-24.363 12.2-33.611 6.904-6.152 15.564-9.396 22.968-9.396 0-29.671 28.503-53.962 64.587-55.964V34.439c-5.289-1.98-9.059-7.123-9.059-13.155 0-7.745 6.216-14.024 13.883-14.024s13.882 6.279 13.882 14.024c0 6.032-3.77 11.175-9.059 13.155v12.567c36.084 2.002 64.587 26.293 64.587 55.964 7.404 0 15.997 3.322 22.968 9.396M50.601 130.445a39.5 39.5 0 0 0-3.159 15.532c0 16.069 9.554 29.884 23.237 35.963h31.267c13.682-6.079 23.236-19.894 23.236-35.963a39.5 39.5 0 0 0-3.159-15.532zm85.144 0a39.5 39.5 0 0 0-3.159 15.532c0 16.069 9.554 29.884 23.236 35.963h31.267c13.683-6.079 23.237-19.894 23.237-35.963a39.5 39.5 0 0 0-3.16-15.532z" clip-rule="evenodd"/><path fill-rule="evenodd" d="M220.337 112.366c10.576 9.216 13.011 19.501 13.126 33.611.117 14.411-2.314 25.037-13.126 34.438-6.229 5.415-13.806 7.306-19.672 8.769q-1.057.263-2.034.514v17.597c0 2.912-1.661 5.582-4.341 6.654-16.192 6.476-39.906 10.564-66.331 10.564s-50.14-4.088-66.332-10.564c-2.68-1.072-4.341-3.742-4.341-6.654v-17.597q-1.066-.274-2.23-.559l-.002-.001c-5.85-1.444-13.37-3.301-19.473-8.723-10.618-9.433-12.311-20.154-12.201-34.438.108-13.98 1.822-24.363 12.2-33.611 6.904-6.152 15.564-9.396 22.968-9.396 0-29.671 28.503-53.962 64.587-55.964V34.439c-5.289-1.98-9.059-7.123-9.059-13.155 0-7.745 6.216-14.024 13.883-14.024s13.882 6.279 13.882 14.024c0 6.032-3.77 11.175-9.059 13.155v12.567c36.084 2.002 64.587 26.293 64.587 55.964 7.404 0 15.997 3.322 22.968 9.396M50.601 130.445a39.5 39.5 0 0 0-3.159 15.532c0 16.069 9.554 29.884 23.237 35.963h31.267c13.682-6.079 23.236-19.894 23.236-35.963a39.5 39.5 0 0 0-3.159-15.532zm85.144 0a39.5 39.5 0 0 0-3.159 15.532c0 16.069 9.554 29.884 23.236 35.963h31.267c13.683-6.079 23.237-19.894 23.237-35.963a39.5 39.5 0 0 0-3.16-15.532z" clip-rule="evenodd"/><path d="M147.254 136.543h19.251c.925 0 1.674.757 1.674 1.691v19.455c0 .935-.749 1.692-1.674 1.692h-19.251a1.68 1.68 0 0 1-1.674-1.692v-19.455c0-.934.749-1.691 1.674-1.691"/><path d="M147.254 136.543h19.251c.925 0 1.674.757 1.674 1.691v19.455c0 .935-.749 1.692-1.674 1.692h-19.251a1.68 1.68 0 0 1-1.674-1.692v-19.455c0-.934.749-1.691 1.674-1.691m-84.539 0h18.414c.925 0 1.674.757 1.674 1.691v19.455c0 .935-.75 1.692-1.674 1.692H62.715a1.683 1.683 0 0 1-1.674-1.692v-19.455c0-.934.75-1.691 1.674-1.691"/><path d="M62.715 136.543h18.414c.925 0 1.674.757 1.674 1.691v19.455c0 .935-.75 1.692-1.674 1.692H62.715a1.683 1.683 0 0 1-1.674-1.692v-19.455c0-.934.75-1.691 1.674-1.691"/></svg>
